test/1.cube
# Created by Adobe Lightroom plugin Export LUT (1.17.0)
LUT_3D_SIZE 5
DOMAIN_MIN 0.000000 0.000000 0.000000
DOMAIN_MAX 0.903226 0.903226 0.903226
0.000000 0.000000 0.000000
0.352514 0.000000 0.000000
0.670161 0.000000 0.000000
0.895476 0.000000 0.000000
1.000000 0.000000 0.000000
0.000000 0.260044 0.000000
0.324804 0.238041 0.000000
0.642481 0.205570 0.000000
0.878752 0.076081 0.000000
1.000000 0.000000 0.000000
0.000000 0.530083 0.000000
0.292332 0.522179 0.000000
0.582605 0.499886 0.000000
0.835752 0.463905 0.000000
1.000000 0.402014 0.000000
0.000000 0.767239 0.000000
0.000000 0.763760 0.000000
0.477790 0.754025 0.000000
0.766781 0.737606 0.000000
1.000000 0.702693 0.000000
0.000000 0.993774 0.000000
0.000000 0.991730 0.000000
0.000000 0.985687 0.000000
0.605127 0.975128 0.000000
0.932830 0.958282 0.000000
0.101564 0.000000 0.315343
0.382269 0.000000 0.294347
0.674250 0.000000 0.244938
0.901427 0.000000 0.131960
1.000000 0.000000 0.000000
0.000000 0.264134 0.256229
0.338598 0.232517 0.235264
0.656336 0.143191 0.178225
0.888029 0.000000 0.040101
1.000000 0.000000 0.000000
0.000000 0.539544 0.000000
0.226322 0.529747 0.000000
0.593683 0.503563 0.000000
0.846342 0.456306 0.000000
1.000000 0.408423 0.000000
0.000000 0.769131 0.000000
0.000000 0.765042 0.000000
0.495796 0.753689 0.000000
0.777584 0.736782 0.000000
1.000000 0.701228 0.000000
0.000000 0.994202 0.000000
0.000000 0.992157 0.000000
0.000000 0.986053 0.000000
0.609369 0.975311 0.000000
0.938415 0.958068 0.000000
0.206302 0.000000 0.574517
0.397284 0.000000 0.566888
0.664546 0.000000 0.547784
0.899351 0.000000 0.495338
1.000000 0.000000 0.428138
0.000000 0.210086 0.552972
0.346715 0.180880 0.547326
0.651270 0.064271 0.530297
0.886839 0.000000 0.477119
1.000000 0.000000 0.413153
0.000000 0.527977 0.492287
0.250278 0.520134 0.486458
0.596368 0.492775 0.462837
0.843931 0.456031 0.428107
1.000000 0.367315 0.345739
0.000000 0.774014 0.334508
0.000000 0.771206 0.322393
0.458198 0.760800 0.288182
0.786099 0.741634 0.215396
1.000000 0.680049 0.000000
0.000000 1.000000 0.000000
0.000000 0.998566 0.000000
0.000000 0.990448 0.000000
0.607172 0.977050 0.000000
0.954070 0.957580 0.000000
0.251347 0.000000 0.809598
0.392004 0.000000 0.806516
0.624811 0.000000 0.797696
0.872709 0.000000 0.782162
1.000000 0.000000 0.735927
0.194308 0.163333 0.799985
0.364141 0.137911 0.797391
0.612879 0.007294 0.789273
0.866423 0.000000 0.774105
1.000000 0.000000 0.726772
0.000000 0.479866 0.772946
0.300023 0.473915 0.770748
0.574395 0.453437 0.763485
0.844022 0.412390 0.748592
1.000000 0.339055 0.695674
0.000000 0.764096 0.719203
0.000000 0.761746 0.716793
0.427893 0.753689 0.707973
0.781277 0.730556 0.681331
1.000000 0.686458 0.633051
0.000000 1.000000 0.519249
0.000000 0.999664 0.510399
0.000000 0.993713 0.484077
0.563714 0.980621 0.427710
0.966857 0.956817 0.277134
0.225986 0.000000 1.000000
0.347326 0.000000 1.000000
0.556237 0.000000 1.000000
0.785489 0.000000 1.000000
1.000000 0.000000 0.999725
0.210697 0.109041 1.000000
0.337804 0.077424 1.000000
0.550652 0.000000 1.000000
0.781552 0.000000 1.000000
1.000000 0.000000 0.997589
0.204227 0.446113 1.000000
0.329412 0.441840 1.000000
0.535302 0.420874 0.998657
0.766262 0.375219 0.995758
1.000000 0.273320 0.990906
0.000000 0.680476 0.986328
0.000000 0.679683 0.986023
0.431098 0.682094 0.984649
0.733516 0.688197 0.980438
0.999481 0.651026 0.973754
0.000000 0.966400 0.954925
0.000000 0.965728 0.954192
0.000000 0.963745 0.951629
0.603632 0.959747 0.945068
0.954406 0.947631 0.928313
