test/1.cube
# Created by Adobe Lightroom plugin Export LUT (1.17.0)
LUT_3D_SIZE 8
DOMAIN_MIN 0.000000 0.000000 0.000000
DOMAIN_MAX 0.903226 0.903226 0.903226
0.000000 0.000000 0.000000
0.169955 0.000000 0.000000
0.407630 0.000000 0.000000
0.593042 0.000000 0.000000
0.739590 0.000000 0.000000
0.865782 0.000000 0.000000
0.985321 0.000000 0.000000
1.000000 0.000000 0.000000
0.000000 0.124117 0.000000
0.164858 0.109560 0.000000
0.390173 0.099580 0.000000
0.580407 0.000000 0.000000
0.730190 0.000000 0.000000
0.858854 0.000000 0.000000
0.980713 0.000000 0.000000
1.000000 0.000000 0.000000
0.000000 0.302861 0.000000
0.196353 0.295964 0.000000
0.371771 0.279301 0.000000
0.554040 0.268803 0.000000
0.709407 0.236973 0.000000
0.842649 0.185458 0.000000
0.969726 0.092714 0.000000
1.000000 0.000000 0.000000
0.000000 0.459724 0.000000
0.178561 0.455909 0.000000
0.359258 0.446662 0.000000
0.523308 0.431434 0.000000
0.678096 0.413794 0.000000
0.816953 0.386908 0.000000
0.951690 0.352514 0.000000
1.000000 0.299321 0.000000
0.000000 0.596857 0.000000
0.059541 0.594476 0.000000
0.306004 0.588586 0.000000
0.479469 0.578668 0.000000
0.635492 0.564904 0.000000
0.782681 0.548302 0.000000
0.926452 0.527733 0.000000
1.000000 0.493355 0.000000
0.000000 0.731899 0.000000
0.000000 0.730434 0.000000
0.182834 0.726864 0.000000
0.409186 0.720882 0.000000
0.582361 0.712551 0.000000
0.740169 0.701778 0.000000
0.893248 0.688624 0.000000
1.000000 0.661952 0.000000
0.000000 0.872129 0.000000
0.000000 0.871183 0.000000
0.000000 0.868803 0.000000
0.249699 0.864805 0.000000
0.491798 0.859159 0.000000
0.675929 0.851713 0.000000
0.844755 0.842191 0.000000
1.000000 0.823545 0.000000
0.000000 0.993774 0.000000
0.000000 0.993042 0.000000
0.000000 0.991089 0.000000
0.000000 0.987854 0.000000
0.282536 0.983154 0.000000
0.552178 0.976959 0.000000
0.751400 0.968872 0.000000
0.932830 0.958282 0.000000
0.037049 0.000000 0.167788
0.207919 0.000000 0.153780
0.412696 0.000000 0.148318
0.595636 0.000000 0.090913
0.740719 0.000000 0.000000
0.863798 0.000000 0.000000
0.981811 0.000000 0.000000
1.000000 0.000000 0.000000
0.000000 0.126131 0.126253
0.175570 0.105715 0.112734
0.402533 0.035248 0.082185
0.587243 0.000000 0.020569
0.732723 0.000000 0.000000
0.857725 0.000000 0.000000
0.978027 0.000000 0.000000
1.000000 0.000000 0.000000
0.000000 0.310216 0.000000
0.151186 0.301915 0.000000
0.381476 0.282322 0.000000
0.563928 0.261448 0.000000
0.713375 0.232639 0.000000
0.842435 0.200015 0.000000
0.968475 0.135439 0.000000
1.000000 0.000000 0.000000
0.000000 0.464393 0.000000
0.134890 0.459876 0.000000
0.357946 0.449165 0.000000
0.530755 0.432410 0.000000
0.682094 0.414801 0.000000
0.818021 0.391913 0.000000
0.952087 0.359350 0.000000
1.000000 0.306279 0.000000
0.000000 0.597559 0.000000
0.090120 0.594842 0.000000
0.320745 0.588281 0.000000
0.491829 0.577539 0.000000
0.641444 0.564202 0.000000
0.785519 0.548913 0.000000
0.928191 0.529412 0.000000
1.000000 0.494789 0.000000
0.000000 0.730678 0.000000
0.000000 0.729305 0.000000
0.223667 0.725826 0.000000
0.424384 0.719997 0.000000
0.590265 0.711910 0.000000
0.744503 0.701442 0.000000
0.895872 0.688716 0.000000
1.000000 0.661769 0.000000
0.000000 0.871641 0.000000
0.000000 0.870756 0.000000
0.000000 0.868406 0.000000
0.268711 0.864469 0.000000
0.499275 0.858854 0.000000
0.680476 0.851469 0.000000
0.847990 0.841978 0.000000
1.000000 0.822995 0.000000
0.000000 0.993896 0.000000
0.000000 0.993133 0.000000
0.000000 0.991211 0.000000
0.000000 0.987976 0.000000
0.285740 0.983276 0.000000
0.554101 0.977050 0.000000
0.753201 0.968872 0.000000
0.934905 0.958221 0.000000
0.119966 0.000000 0.357122
0.262425 0.000000 0.350927
0.431342 0.000000 0.335149
0.598932 0.000000 0.312383
0.744076 0.000000 0.272923
0.871397 0.000000 0.220432
0.992248 0.000000 0.150210
1.000000 0.000000 0.000000
0.000000 0.111635 0.337560
0.193790 0.067140 0.332647
0.417029 0.000000 0.319615
0.595148 0.000000 0.291142
0.739620 0.000000 0.251102
0.866423 0.000000 0.201541
0.988922 0.000000 0.128420
1.000000 0.000000 0.000000
0.000000 0.307042 0.295201
0.107271 0.298985 0.290013
0.385840 0.273503 0.272557
0.570001 0.239048 0.248875
0.721614 0.185092 0.210422
0.853147 0.099397 0.153933
0.979828 0.000000 0.040406
1.000000 0.000000 0.000000
0.000000 0.469337 0.197848
0.000000 0.465736 0.184787
0.322301 0.454536 0.163119
0.536828 0.435737 0.126986
0.695521 0.400671 0.081605
0.830411 0.364660 0.000000
0.963195 0.326604 0.000000
1.000000 0.288884 0.000000
0.000000 0.605371 0.000000
0.000000 0.602502 0.000000
0.246555 0.595514 0.000000
0.471290 0.584100 0.000000
0.647364 0.568414 0.000000
0.797604 0.544457 0.000000
0.937377 0.521691 0.000000
1.000000 0.495857 0.000000
0.000000 0.737057 0.000000
0.000000 0.735286 0.000000
0.100526 0.731106 0.000000
0.401648 0.724025 0.000000
0.590234 0.714351 0.000000
0.752743 0.702266 0.000000
0.902892 0.688502 0.000000
1.000000 0.660273 0.000000
0.000000 0.871885 0.000000
0.000000 0.870756 0.000000
0.000000 0.867979 0.000000
0.303349 0.863890 0.000000
0.515282 0.858366 0.000000
0.690761 0.851072 0.000000
0.855802 0.841550 0.000000
1.000000 0.821286 0.000000
0.000000 0.994446 0.000000
0.000000 0.993652 0.000000
0.000000 0.991730 0.000000
0.000000 0.988403 0.000000
0.288609 0.983642 0.000000
0.557061 0.977295 0.000000
0.757046 0.968994 0.000000
0.939910 0.958007 0.000000
0.181735 0.000000 0.505882
0.285649 0.000000 0.502251
0.436194 0.000000 0.494087
0.596185 0.000000 0.481270
0.744289 0.000000 0.456031
0.870146 0.000000 0.417762
0.991669 0.000000 0.378668
1.000000 0.000000 0.332006
0.034333 0.053559 0.494972
0.231296 0.007294 0.492164
0.414588 0.000000 0.485389
0.590143 0.000000 0.473793
0.740810 0.000000 0.446082
0.865782 0.000000 0.408606
0.988251 0.000000 0.371405
1.000000 0.000000 0.324376
0.000000 0.277379 0.472541
0.156374 0.266392 0.470039
0.381933 0.242741 0.463569
0.574456 0.204440 0.452125
0.723232 0.167666 0.422004
0.849943 0.108827 0.390509
0.977264 0.000000 0.356542
1.000000 0.000000 0.306737
0.000000 0.460182 0.431678
0.000000 0.456428 0.429084
0.333715 0.446021 0.421363
0.537469 0.424659 0.404364
0.686580 0.404089 0.386450
0.823880 0.374151 0.359930
0.962310 0.327214 0.317632
1.000000 0.244633 0.246067
0.000000 0.603143 0.348791
0.000000 0.600732 0.345312
0.255253 0.594171 0.337224
0.474372 0.583093 0.323033
0.651606 0.568322 0.301091
0.800931 0.541650 0.273716
0.942931 0.512200 0.224887
1.000000 0.461494 0.071107
0.000000 0.739254 0.223911
0.000000 0.737942 0.218265
0.000000 0.734127 0.204685
0.383337 0.727443 0.178805
0.583307 0.718074 0.130709
0.757107 0.705806 0.000000
0.916075 0.683009 0.000000
1.000000 0.643397 0.000000
0.000000 0.878813 0.000000
0.000000 0.877684 0.000000
0.000000 0.874876 0.000000
0.157961 0.870085 0.000000
0.478614 0.863279 0.000000
0.683772 0.854185 0.000000
0.864744 0.842496 0.000000
1.000000 0.817227 0.000000
0.000000 0.996246 0.000000
0.000000 0.995422 0.000000
0.000000 0.993378 0.000000
0.000000 0.989899 0.000000
0.273899 0.984924 0.000000
0.555962 0.978210 0.000000
0.761105 0.969421 0.000000
0.948486 0.957733 0.000000
0.224643 0.000000 0.641932
0.302861 0.000000 0.639673
0.432380 0.000000 0.634272
0.578943 0.000000 0.625544
0.727779 0.000000 0.613489
0.867765 0.000000 0.590600
0.990509 0.000000 0.555047
1.000000 0.000000 0.517021
0.161501 0.000000 0.634607
0.265080 0.000000 0.632837
0.413306 0.000000 0.628260
0.570153 0.000000 0.620142
0.723934 0.000000 0.608515
0.864225 0.000000 0.584527
0.987640 0.000000 0.549767
1.000000 0.000000 0.512261
0.067628 0.246433 0.619196
0.221592 0.238987 0.617487
0.389471 0.220829 0.613153
0.554833 0.186679 0.605493
0.712734 0.126497 0.594049
0.852018 0.021485 0.568658
0.978515 0.000000 0.537407
1.000000 0.000000 0.500847
0.000000 0.426795 0.592584
0.155673 0.423163 0.590814
0.355047 0.414435 0.586206
0.527825 0.399908 0.577874
0.689815 0.379004 0.566430
0.827390 0.361486 0.541619
0.961883 0.324620 0.515648
1.000000 0.254795 0.478187
0.000000 0.592950 0.551537
0.000000 0.590784 0.549920
0.282719 0.585229 0.545312
0.480262 0.575250 0.536126
0.648707 0.557549 0.519341
0.794400 0.540429 0.502129
0.941955 0.511772 0.473671
1.000000 0.462348 0.426581
0.000000 0.736812 0.479469
0.000000 0.735622 0.477058
0.000458 0.732418 0.470832
0.372076 0.727047 0.456306
0.575952 0.718044 0.435462
0.759945 0.705165 0.411322
0.920806 0.677333 0.375463
1.000000 0.634455 0.316167
0.000000 0.879667 0.352697
0.000000 0.879057 0.346838
0.000000 0.877440 0.331518
0.000000 0.873625 0.306432
0.452186 0.866545 0.275731
0.674617 0.857053 0.224674
0.868467 0.844388 0.122591
1.000000 0.806149 0.000000
0.000000 1.000000 0.000000
0.000000 1.000000 0.000000
0.000000 1.000000 0.000000
0.000000 0.996124 0.000000
0.000000 0.990234 0.000000
0.509361 0.982238 0.000000
0.755703 0.971252 0.000000
0.960967 0.957366 0.000000
0.248356 0.000000 0.775784
0.311254 0.000000 0.774502
0.425269 0.000000 0.771206
0.560723 0.000000 0.765621
0.701808 0.000000 0.757809
0.844663 0.000000 0.747280
0.986603 0.000000 0.730556
1.000000 0.000000 0.691463
0.211612 0.000000 0.771450
0.286015 0.000000 0.770321
0.410986 0.000000 0.767391
0.552911 0.000000 0.762112
0.697536 0.000000 0.754482
0.842100 0.000000 0.744015
0.984344 0.000000 0.726741
1.000000 0.000000 0.687831
0.176394 0.223789 0.761532
0.261997 0.217166 0.760372
0.395300 0.200595 0.757626
0.541588 0.168185 0.752682
0.688655 0.108034 0.745296
0.834989 0.000000 0.735103
0.977417 0.000000 0.716518
1.000000 0.000000 0.678645
0.101167 0.403204 0.744808
0.218570 0.400641 0.743709
0.368475 0.393957 0.741024
0.520226 0.380285 0.736202
0.671046 0.359503 0.729030
0.821195 0.329564 0.718929
0.964782 0.290440 0.698390
1.000000 0.220188 0.661524
0.000000 0.566644 0.719600
0.019654 0.564874 0.718654
0.294408 0.559960 0.716121
0.469612 0.550103 0.711788
0.633448 0.533043 0.705074
0.798642 0.513451 0.694209
0.947143 0.492103 0.668635
1.000000 0.453651 0.632197
0.000000 0.729091 0.683101
0.000000 0.728023 0.682063
0.000000 0.725307 0.679377
0.362219 0.720302 0.674281
0.565148 0.711635 0.664607
0.754177 0.694759 0.646052
0.912657 0.676417 0.625605
1.000000 0.641352 0.588922
0.000000 0.878050 0.606928
0.000000 0.877440 0.604669
0.000000 0.875761 0.598657
0.000000 0.872587 0.587243
0.429297 0.866819 0.569696
0.666255 0.857023 0.547204
0.871000 0.843320 0.515007
1.000000 0.797024 0.460182
0.000000 1.000000 0.443244
0.000000 1.000000 0.439185
0.000000 0.999634 0.428626
0.000000 0.996521 0.409979
0.000000 0.991333 0.381720
0.490455 0.983429 0.331456
0.743709 0.972534 0.243839
0.965759 0.957305 0.000000
0.249332 0.000000 0.905333
0.304387 0.000000 0.904631
0.407691 0.000000 0.903014
0.534447 0.000000 0.900206
0.669062 0.000000 0.896117
0.807218 0.000000 0.890623
0.949493 0.000000 0.883452
1.000000 0.000000 0.874449
0.224826 0.000000 0.903288
0.286870 0.000000 0.902647
0.397314 0.000000 0.901122
0.528374 0.000000 0.898436
0.665522 0.000000 0.894347
0.805081 0.000000 0.888853
0.948241 0.000000 0.881743
1.000000 0.000000 0.871733
0.210178 0.201236 0.898070
0.275334 0.195102 0.897490
0.388586 0.178592 0.895995
0.520928 0.145998 0.893400
0.659236 0.076967 0.889555
0.799924 0.000000 0.884184
0.944457 0.000000 0.877195
1.000000 0.000000 0.864744
0.180270 0.385107 0.889311
0.253727 0.383307 0.888823
0.370855 0.375860 0.887449
0.505638 0.362219 0.885008
0.645686 0.341375 0.881285
0.788968 0.309087 0.876127
0.937194 0.257511 0.869291
1.000000 0.161501 0.852079
0.000000 0.538689 0.876005
0.100069 0.537316 0.875731
0.297185 0.533593 0.874846
0.458625 0.525536 0.873594
0.612757 0.511437 0.870329
0.766903 0.490761 0.864988
0.925566 0.460670 0.857725
1.000000 0.421118 0.831235
0.000000 0.695003 0.856687
0.000000 0.693782 0.856382
0.000000 0.690700 0.855589
0.345129 0.684962 0.854124
0.548852 0.678065 0.851194
0.730220 0.669642 0.845365
0.903685 0.651270 0.836088
1.000000 0.631373 0.800290
0.000000 0.862791 0.827481
0.000000 0.862333 0.826932
0.000000 0.861021 0.825589
0.000000 0.858824 0.822782
0.413642 0.854948 0.817777
0.660548 0.848295 0.808774
0.861601 0.834379 0.791257
1.000000 0.815610 0.768795
0.000000 0.999664 0.724331
0.000000 0.999023 0.722530
0.000000 0.997314 0.717830
0.000000 0.994049 0.709773
0.000000 0.988434 0.699916
0.532494 0.979095 0.695064
0.769436 0.967864 0.681666
0.967315 0.954070 0.634119
0.225986 0.000000 1.000000
0.277775 0.000000 1.000000
0.374426 0.000000 1.000000
0.493172 0.000000 1.000000
0.620630 0.000000 1.000000
0.752041 0.000000 1.000000
0.887572 0.000000 1.000000
1.000000 0.000000 0.999725
0.210513 0.000000 1.000000
0.265812 0.000000 1.000000
0.366918 0.000000 1.000000
0.488777 0.000000 1.000000
0.617884 0.000000 1.000000
0.750240 0.000000 1.000000
0.886412 0.000000 1.000000
1.000000 0.000000 0.998993
0.214481 0.177035 1.000000
0.268009 0.170657 1.000000
0.366583 0.153323 1.000000
0.486763 0.116365 1.000000
0.614710 0.017212 1.000000
0.746822 0.000000 1.000000
0.883421 0.000000 1.000000
1.000000 0.000000 0.996918
0.223087 0.368505 1.000000
0.272343 0.365606 1.000000
0.365362 0.358251 1.000000
0.481697 0.344457 1.000000
0.607721 0.322332 1.000000
0.739223 0.287449 0.998749
0.876921 0.228611 0.996338
1.000000 0.092439 0.993317
0.084810 0.510307 0.997528
0.190616 0.510643 0.997406
0.325078 0.511589 0.997070
0.456703 0.506645 0.996368
0.586542 0.491981 0.995178
0.722133 0.470375 0.993378
0.864469 0.438483 0.990997
1.000000 0.390326 0.987762
0.000000 0.644892 0.989044
0.000000 0.644556 0.988952
0.073854 0.644160 0.988678
0.363165 0.645136 0.988037
0.552453 0.652613 0.986572
0.701442 0.646540 0.984344
0.847257 0.627497 0.981415
1.000000 0.599756 0.977447
0.000000 0.793820 0.976043
0.000000 0.793423 0.975921
0.000000 0.792538 0.975525
0.000000 0.791928 0.974731
0.430793 0.794247 0.973022
0.659907 0.803677 0.969818
0.834195 0.812955 0.964935
0.983154 0.798001 0.959258
0.000000 0.966400 0.954925
0.000000 0.966155 0.954650
0.000000 0.965484 0.953979
0.000000 0.964446 0.952636
0.000000 0.962890 0.950286
0.529320 0.960510 0.946380
0.784421 0.956390 0.940093
0.954406 0.947631 0.928313
