test/1.cube
# Created by Adobe Lightroom plugin Export LUT (1.17.0)
LUT_3D_SIZE 32
DOMAIN_MIN 0.0 0.0 0.0
DOMAIN_MAX 1.0 1.0 1.0
0.000000 0.000000 0.000000
0.047791 0.000000 0.000000
0.080140 0.000000 0.000000
0.118013 0.000000 0.000000
0.169955 0.000000 0.000000
0.230625 0.000000 0.000000
0.292668 0.000000 0.000000
0.352514 0.000000 0.000000
0.407630 0.000000 0.000000
0.458686 0.000000 0.000000
0.506340 0.000000 0.000000
0.550958 0.000000 0.000000
0.593042 0.000000 0.000000
0.632746 0.000000 0.000000
0.670161 0.000000 0.000000
0.705745 0.000000 0.000000
0.739590 0.000000 0.000000
0.772244 0.000000 0.000000
0.804013 0.000000 0.000000
0.835233 0.000000 0.000000
0.865782 0.000000 0.000000
0.895476 0.000000 0.000000
0.925017 0.000000 0.000000
0.954986 0.000000 0.000000
0.985321 0.000000 0.000000
1.000000 0.000000 0.000000
1.000000 0.000000 0.000000
1.000000 0.000000 0.000000
1.000000 0.000000 0.000000
1.000000 0.000000 0.000000
1.000000 0.000000 0.000000
1.000000 0.000000 0.000000
0.000000 0.024567 0.000000
0.041108 0.020325 0.000000
0.076905 0.014649 0.000000
0.115969 0.007843 0.000000
0.167453 0.000000 0.000000
0.227420 0.000000 0.000000
0.289403 0.000000 0.000000
0.349218 0.000000 0.000000
0.404486 0.000000 0.000000
0.455909 0.000000 0.000000
0.503624 0.000000 0.000000
0.548730 0.000000 0.000000
0.591058 0.000000 0.000000
0.630823 0.000000 0.000000
0.668299 0.000000 0.000000
0.703883 0.000000 0.000000
0.738003 0.000000 0.000000
0.770809 0.000000 0.000000
0.802701 0.000000 0.000000
0.833951 0.000000 0.000000
0.864561 0.000000 0.000000
0.894377 0.000000 0.000000
0.924132 0.000000 0.000000
0.954192 0.000000 0.000000
0.984497 0.000000 0.000000
1.000000 0.000000 0.000000
1.000000 0.000000 0.000000
1.000000 0.000000 0.000000
1.000000 0.000000 0.000000
1.000000 0.000000 0.000000
1.000000 0.000000 0.000000
1.000000 0.000000 0.000000
0.000000 0.047761 0.000000
0.031800 0.044678 0.000000
0.072724 0.039826 0.000000
0.113252 0.034882 0.000000
0.164553 0.030732 0.000000
0.223880 0.021515 0.000000
0.285710 0.005066 0.000000
0.345159 0.000000 0.000000
0.401129 0.000000 0.000000
0.452491 0.000000 0.000000
0.500877 0.000000 0.000000
0.546075 0.000000 0.000000
0.588556 0.000000 0.000000
0.628504 0.000000 0.000000
0.666133 0.000000 0.000000
0.701930 0.000000 0.000000
0.736202 0.000000 0.000000
0.769131 0.000000 0.000000
0.801022 0.000000 0.000000
0.832578 0.000000 0.000000
0.863310 0.000000 0.000000
0.893156 0.000000 0.000000
0.923064 0.000000 0.000000
0.953216 0.000000 0.000000
0.983581 0.000000 0.000000
1.000000 0.000000 0.000000
1.000000 0.000000 0.000000
1.000000 0.000000 0.000000
1.000000 0.000000 0.000000
1.000000 0.000000 0.000000
1.000000 0.000000 0.000000
1.000000 0.000000 0.000000
0.000000 0.081605 0.000000
0.027710 0.078889 0.000000
0.072786 0.075959 0.000000
0.113863 0.070680 0.000000
0.160555 0.068696 0.000000
0.219669 0.068727 0.000000
0.280797 0.063996 0.000000
0.340490 0.050599 0.000000
0.396368 0.025910 0.000000
0.448249 0.000000 0.000000
0.496712 0.000000 0.000000
0.542229 0.000000 0.000000
0.584985 0.000000 0.000000
0.625147 0.000000 0.000000
0.663050 0.000000 0.000000
0.699092 0.000000 0.000000
0.733577 0.000000 0.000000
0.766720 0.000000 0.000000
0.798856 0.000000 0.000000
0.830533 0.000000 0.000000
0.861387 0.000000 0.000000
0.891447 0.000000 0.000000
0.921508 0.000000 0.000000
0.951781 0.000000 0.000000
0.982391 0.000000 0.000000
1.000000 0.000000 0.000000
1.000000 0.000000 0.000000
1.000000 0.000000 0.000000
1.000000 0.000000 0.000000
1.000000 0.000000 0.000000
1.000000 0.000000 0.000000
1.000000 0.000000 0.000000
0.000000 0.124117 0.000000
0.022461 0.121706 0.000000
0.076692 0.119051 0.000000
0.122286 0.114839 0.000000
0.164858 0.109560 0.000000
0.213657 0.107668 0.000000
0.274662 0.110353 0.000000
0.334081 0.107607 0.000000
0.390173 0.099580 0.000000
0.442512 0.086152 0.000000
0.491524 0.066011 0.000000
0.537224 0.037263 0.000000
0.580407 0.000000 0.000000
0.620874 0.000000 0.000000
0.659113 0.000000 0.000000
0.695552 0.000000 0.000000
0.730190 0.000000 0.000000
0.763699 0.000000 0.000000
0.796017 0.000000 0.000000
0.827787 0.000000 0.000000
0.858854 0.000000 0.000000
0.889067 0.000000 0.000000
0.919371 0.000000 0.000000
0.949981 0.000000 0.000000
0.980713 0.000000 0.000000
1.000000 0.000000 0.000000
1.000000 0.000000 0.000000
1.000000 0.000000 0.000000
1.000000 0.000000 0.000000
1.000000 0.000000 0.000000
1.000000 0.000000 0.000000
1.000000 0.000000 0.000000
0.000000 0.170047 0.000000
0.020813 0.167880 0.000000
0.080446 0.165805 0.000000
0.130831 0.162295 0.000000
0.176486 0.158053 0.000000
0.219852 0.152285 0.000000
0.267796 0.149294 0.000000
0.327031 0.152163 0.000000
0.382788 0.150607 0.000000
0.435676 0.144991 0.000000
0.484962 0.135988 0.000000
0.531243 0.123384 0.000000
0.574670 0.107942 0.000000
0.615717 0.087892 0.000000
0.654353 0.060334 0.000000
0.691066 0.019623 0.000000
0.726131 0.000000 0.000000
0.759762 0.000000 0.000000
0.792294 0.000000 0.000000
0.824491 0.000000 0.000000
0.855680 0.000000 0.000000
0.886229 0.000000 0.000000
0.916777 0.000000 0.000000
0.947662 0.000000 0.000000
0.978546 0.000000 0.000000
1.000000 0.000000 0.000000
1.000000 0.000000 0.000000
1.000000 0.000000 0.000000
1.000000 0.000000 0.000000
1.000000 0.000000 0.000000
1.000000 0.000000 0.000000
1.000000 0.000000 0.000000
0.000000 0.215732 0.000000
0.026429 0.214298 0.000000
0.087831 0.212345 0.000000
0.138796 0.209506 0.000000
0.185611 0.206149 0.000000
0.230716 0.201572 0.000000
0.274052 0.195651 0.000000
0.319768 0.191501 0.000000
0.375463 0.193912 0.000000
0.428290 0.192325 0.000000
0.477852 0.188174 0.000000
0.524559 0.181155 0.000000
0.568383 0.171664 0.000000
0.609705 0.160220 0.000000
0.648829 0.146273 0.000000
0.685908 0.129549 0.000000
0.721248 0.109804 0.000000
0.755245 0.084688 0.000000
0.788113 0.050385 0.000000
0.820493 0.000000 0.000000
0.851987 0.000000 0.000000
0.882750 0.000000 0.000000
0.913756 0.000000 0.000000
0.944793 0.000000 0.000000
0.976074 0.000000 0.000000
1.000000 0.000000 0.000000
1.000000 0.000000 0.000000
1.000000 0.000000 0.000000
1.000000 0.000000 0.000000
1.000000 0.000000 0.000000
1.000000 0.000000 0.000000
1.000000 0.000000 0.000000
0.000000 0.260044 0.000000
0.037507 0.258762 0.000000
0.095583 0.257267 0.000000
0.145480 0.254826 0.000000
0.192569 0.252049 0.000000
0.237858 0.248112 0.000000
0.282017 0.243320 0.000000
0.324804 0.238041 0.000000
0.368017 0.232914 0.000000
0.420783 0.234379 0.000000
0.470405 0.233188 0.000000
0.517205 0.229099 0.000000
0.561395 0.223056 0.000000
0.603143 0.215091 0.000000
0.642481 0.205570 0.000000
0.679896 0.194217 0.000000
0.715633 0.181369 0.000000
0.750027 0.166354 0.000000
0.783322 0.149386 0.000000
0.815915 0.130343 0.000000
0.847623 0.106905 0.000000
0.878752 0.076081 0.000000
0.910033 0.027375 0.000000
0.941527 0.000000 0.000000
0.973114 0.000000 0.000000
1.000000 0.000000 0.000000
1.000000 0.000000 0.000000
1.000000 0.000000 0.000000
1.000000 0.000000 0.000000
1.000000 0.000000 0.000000
1.000000 0.000000 0.000000
1.000000 0.000000 0.000000
0.000000 0.302861 0.000000
0.047578 0.301610 0.000000
0.101381 0.300359 0.000000
0.149935 0.298528 0.000000
0.196353 0.295964 0.000000
0.241855 0.292760 0.000000
0.285863 0.289128 0.000000
0.329259 0.284581 0.000000
0.371771 0.279301 0.000000
0.412970 0.273503 0.000000
0.462562 0.274235 0.000000
0.509514 0.272526 0.000000
0.554040 0.268803 0.000000
0.595972 0.262943 0.000000
0.635615 0.255680 0.000000
0.673365 0.246983 0.000000
0.709407 0.236973 0.000000
0.744137 0.226017 0.000000
0.777676 0.213687 0.000000
0.810575 0.200290 0.000000
0.842649 0.185458 0.000000
0.874144 0.168795 0.000000
0.905882 0.148684 0.000000
0.937713 0.124758 0.000000
0.969726 0.092714 0.000000
1.000000 0.042084 0.000000
1.000000 0.000000 0.000000
1.000000 0.000000 0.000000
1.000000 0.000000 0.000000
1.000000 0.000000 0.000000
1.000000 0.000000 0.000000
1.000000 0.000000 0.000000
0.000000 0.344244 0.000000
0.051789 0.343175 0.000000
0.103609 0.341985 0.000000
0.150851 0.340490 0.000000
0.197391 0.338354 0.000000
0.243107 0.335637 0.000000
0.287236 0.332433 0.000000
0.330663 0.328679 0.000000
0.373053 0.324163 0.000000
0.414588 0.319432 0.000000
0.455299 0.314000 0.000000
0.501549 0.313054 0.000000
0.545892 0.310887 0.000000
0.588006 0.306798 0.000000
0.628077 0.301152 0.000000
0.666194 0.293980 0.000000
0.702541 0.286015 0.000000
0.737545 0.276890 0.000000
0.771481 0.266941 0.000000
0.804654 0.256321 0.000000
0.837034 0.244755 0.000000
0.869169 0.232029 0.000000
0.901244 0.217960 0.000000
0.933532 0.202029 0.000000
0.965850 0.183627 0.000000
0.998138 0.161776 0.000000
1.000000 0.134066 0.000000
1.000000 0.095949 0.000000
1.000000 0.028656 0.000000
1.000000 0.000000 0.000000
1.000000 0.000000 0.000000
1.000000 0.000000 0.000000
0.000000 0.384131 0.000000
0.046754 0.383154 0.000000
0.099428 0.382361 0.000000
0.148531 0.380865 0.000000
0.195224 0.379004 0.000000
0.240238 0.376898 0.000000
0.285039 0.374090 0.000000
0.328435 0.370764 0.000000
0.371221 0.366979 0.000000
0.413092 0.362737 0.000000
0.453925 0.358038 0.000000
0.494148 0.352758 0.000000
0.537530 0.350835 0.000000
0.579828 0.347906 0.000000
0.619989 0.343511 0.000000
0.658412 0.337591 0.000000
0.695033 0.330938 0.000000
0.730434 0.323247 0.000000
0.764614 0.314733 0.000000
0.798184 0.305699 0.000000
0.830900 0.295995 0.000000
0.863523 0.285466 0.000000
0.896117 0.274266 0.000000
0.928801 0.261967 0.000000
0.961547 0.248234 0.000000
0.994202 0.232425 0.000000
1.000000 0.213962 0.000000
1.000000 0.191745 0.000000
1.000000 0.164279 0.000000
1.000000 0.128023 0.000000
1.000000 0.073732 0.000000
1.000000 0.000000 0.000000
0.000000 0.422614 0.000000
0.028840 0.421820 0.000000
0.089723 0.421027 0.000000
0.141482 0.419867 0.000000
0.189242 0.418219 0.000000
0.234867 0.416236 0.000000
0.279911 0.413855 0.000000
0.323583 0.411078 0.000000
0.366644 0.407782 0.000000
0.408667 0.404089 0.000000
0.449744 0.400031 0.000000
0.490089 0.395392 0.000000
0.529656 0.390509 0.000000
0.570855 0.387335 0.000000
0.611292 0.383886 0.000000
0.649775 0.379217 0.000000
0.686885 0.373327 0.000000
0.722591 0.366522 0.000000
0.757168 0.359258 0.000000
0.791043 0.351385 0.000000
0.824247 0.342931 0.000000
0.857328 0.334173 0.000000
0.890532 0.324468 0.000000
0.923674 0.314336 0.000000
0.956817 0.302892 0.000000
0.989868 0.290196 0.000000
1.000000 0.275761 0.000000
1.000000 0.258946 0.000000
1.000000 0.239170 0.000000
1.000000 0.215366 0.000000
1.000000 0.186343 0.000000
1.000000 0.149081 0.000000
0.000000 0.459724 0.000000
0.000000 0.459052 0.000000
0.070954 0.458350 0.000000
0.127169 0.457404 0.000000
0.178561 0.455909 0.000000
0.225803 0.454200 0.000000
0.271458 0.452094 0.000000
0.315801 0.449653 0.000000
0.359258 0.446662 0.000000
0.401526 0.443549 0.000000
0.443091 0.439857 0.000000
0.483589 0.435798 0.000000
0.523308 0.431434 0.000000
0.562341 0.426734 0.000000
0.601801 0.422919 0.000000
0.640711 0.418891 0.000000
0.678096 0.413794 0.000000
0.714046 0.408057 0.000000
0.748989 0.401526 0.000000
0.783291 0.394415 0.000000
0.816953 0.386908 0.000000
0.850736 0.379187 0.000000
0.884398 0.370886 0.000000
0.918059 0.362127 0.000000
0.951690 0.352514 0.000000
0.985138 0.341833 0.000000
1.000000 0.329656 0.000000
1.000000 0.315618 0.000000
1.000000 0.299321 0.000000
1.000000 0.280705 0.000000
1.000000 0.258579 0.000000
1.000000 0.232822 0.000000
0.000000 0.495491 0.000000
0.000000 0.495033 0.000000
0.032807 0.494301 0.000000
0.106600 0.493507 0.000000
0.163119 0.492195 0.000000
0.212955 0.490700 0.000000
0.260594 0.488808 0.000000
0.305303 0.486641 0.000000
0.349462 0.484047 0.000000
0.392126 0.481209 0.000000
0.434058 0.477913 0.000000
0.474952 0.474403 0.000000
0.514702 0.470527 0.000000
0.554162 0.466224 0.000000
0.592523 0.461707 0.000000
0.630762 0.457496 0.000000
0.668452 0.453162 0.000000
0.704829 0.447822 0.000000
0.740261 0.441840 0.000000
0.774929 0.435584 0.000000
0.809293 0.429053 0.000000
0.843442 0.422431 0.000000
0.877775 0.415137 0.000000
0.911894 0.407446 0.000000
0.946014 0.398962 0.000000
0.979980 0.389532 0.000000
1.000000 0.379004 0.000000
1.000000 0.366796 0.000000
1.000000 0.352667 0.000000
1.000000 0.336767 0.000000
1.000000 0.318425 0.000000
1.000000 0.297307 0.000000
0.000000 0.530083 0.000000
0.000000 0.529656 0.000000
0.000000 0.529107 0.000000
0.074800 0.528283 0.000000
0.141268 0.527214 0.000000
0.195621 0.525902 0.000000
0.245365 0.524193 0.000000
0.292332 0.522179 0.000000
0.337163 0.520012 0.000000
0.380682 0.517388 0.000000
0.422858 0.514549 0.000000
0.464271 0.511223 0.000000
0.504509 0.507774 0.000000
0.543969 0.504021 0.000000
0.582605 0.499886 0.000000
0.620600 0.495583 0.000000
0.658167 0.491157 0.000000
0.694972 0.486427 0.000000
0.730709 0.481025 0.000000
0.765896 0.475471 0.000000
0.800961 0.469764 0.000000
0.835752 0.463905 0.000000
0.870634 0.457557 0.000000
0.905394 0.450721 0.000000
0.940002 0.443214 0.000000
0.974334 0.434852 0.000000
1.000000 0.425360 0.000000
1.000000 0.414618 0.000000
1.000000 0.402014 0.000000
1.000000 0.387701 0.000000
1.000000 0.371557 0.000000
1.000000 0.353002 0.000000
0.000000 0.563836 0.000000
0.000000 0.563439 0.000000
0.000000 0.562951 0.000000
0.009583 0.562310 0.000000
0.109987 0.561273 0.000000
0.173861 0.560021 0.000000
0.227359 0.558495 0.000000
0.276310 0.556725 0.000000
0.322698 0.554711 0.000000
0.367102 0.552331 0.000000
0.410193 0.549737 0.000000
0.452003 0.546960 0.000000
0.492744 0.543725 0.000000
0.532433 0.540429 0.000000
0.571496 0.536645 0.000000
0.609735 0.532708 0.000000
0.647364 0.528496 0.000000
0.684291 0.523980 0.000000
0.720607 0.519219 0.000000
0.756497 0.514366 0.000000
0.792111 0.509453 0.000000
0.827604 0.504265 0.000000
0.863035 0.498726 0.000000
0.898314 0.492653 0.000000
0.933410 0.486000 0.000000
0.968322 0.478523 0.000000
1.000000 0.469947 0.000000
1.000000 0.460060 0.000000
1.000000 0.448615 0.000000
1.000000 0.435645 0.000000
1.000000 0.420661 0.000000
1.000000 0.403998 0.000000
0.000000 0.596857 0.000000
0.000000 0.596429 0.000000
0.000000 0.595941 0.000000
0.000000 0.595361 0.000000
0.059541 0.594476 0.000000
0.143862 0.593378 0.000000
0.204562 0.592065 0.000000
0.256779 0.590478 0.000000
0.306004 0.588586 0.000000
0.351659 0.586481 0.000000
0.395666 0.584100 0.000000
0.438300 0.581476 0.000000
0.479469 0.578668 0.000000
0.519799 0.575586 0.000000
0.559167 0.572259 0.000000
0.597681 0.568688 0.000000
0.635492 0.564904 0.000000
0.672969 0.560845 0.000000
0.709682 0.556634 0.000000
0.746304 0.552575 0.000000
0.782681 0.548302 0.000000
0.818845 0.543755 0.000000
0.854887 0.538964 0.000000
0.890745 0.533715 0.000000
0.926452 0.527733 0.000000
0.961822 0.521019 0.000000
0.996643 0.513085 0.000000
1.000000 0.504021 0.000000
1.000000 0.493355 0.000000
1.000000 0.481209 0.000000
1.000000 0.467414 0.000000
1.000000 0.451850 0.000000
0.000000 0.629572 0.000000
0.000000 0.629206 0.000000
0.000000 0.628840 0.000000
0.000000 0.628229 0.000000
0.000000 0.627497 0.000000
0.100404 0.626490 0.000000
0.175387 0.625238 0.000000
0.233616 0.623896 0.000000
0.286076 0.622187 0.000000
0.334081 0.620294 0.000000
0.379309 0.618311 0.000000
0.422980 0.615961 0.000000
0.465156 0.613458 0.000000
0.506157 0.610742 0.000000
0.546105 0.607813 0.000000
0.585138 0.604669 0.000000
0.623682 0.601373 0.000000
0.661433 0.597864 0.000000
0.698726 0.594079 0.000000
0.735653 0.590204 0.000000
0.772580 0.586664 0.000000
0.809506 0.582818 0.000000
0.846159 0.578668 0.000000
0.882658 0.574060 0.000000
0.918944 0.568688 0.000000
0.954864 0.562524 0.000000
0.990143 0.555261 0.000000
1.000000 0.546777 0.000000
1.000000 0.536797 0.000000
1.000000 0.525353 0.000000
1.000000 0.512230 0.000000
1.000000 0.497566 0.000000
0.000000 0.662898 0.000000
0.000000 0.662593 0.000000
0.000000 0.662257 0.000000
0.000000 0.661707 0.000000
0.000000 0.661067 0.000000
0.003723 0.660212 0.000000
0.132570 0.659174 0.000000
0.203494 0.657832 0.000000
0.260899 0.656519 0.000000
0.312627 0.654749 0.000000
0.360479 0.652949 0.000000
0.405676 0.650965 0.000000
0.449256 0.648768 0.000000
0.491341 0.646296 0.000000
0.532036 0.643824 0.000000
0.571923 0.641108 0.000000
0.611109 0.638087 0.000000
0.649531 0.634943 0.000000
0.687373 0.631739 0.000000
0.724880 0.628290 0.000000
0.762081 0.624506 0.000000
0.799619 0.621393 0.000000
0.837003 0.617762 0.000000
0.874022 0.613794 0.000000
0.910887 0.609064 0.000000
0.947356 0.603449 0.000000
0.983124 0.596674 0.000000
1.000000 0.588647 0.000000
1.000000 0.579156 0.000000
1.000000 0.568170 0.000000
1.000000 0.555657 0.000000
1.000000 0.541650 0.000000
0.000000 0.697017 0.000000
0.000000 0.696773 0.000000
0.000000 0.696498 0.000000
0.000000 0.696040 0.000000
0.000000 0.695399 0.000000
0.000000 0.694667 0.000000
0.048554 0.693782 0.000000
0.159487 0.692622 0.000000
0.228458 0.691371 0.000000
0.285954 0.689967 0.000000
0.337316 0.688350 0.000000
0.385412 0.686610 0.000000
0.430854 0.684596 0.000000
0.474342 0.682521 0.000000
0.516533 0.680232 0.000000
0.557458 0.677790 0.000000
0.597498 0.675196 0.000000
0.636713 0.672511 0.000000
0.675471 0.669520 0.000000
0.713710 0.666407 0.000000
0.751522 0.663172 0.000000
0.789120 0.659724 0.000000
0.827115 0.656641 0.000000
0.864866 0.653193 0.000000
0.902373 0.648981 0.000000
0.939391 0.643854 0.000000
0.975677 0.637537 0.000000
1.000000 0.629938 0.000000
1.000000 0.620813 0.000000
1.000000 0.610254 0.000000
1.000000 0.598169 0.000000
1.000000 0.584588 0.000000
0.000000 0.731899 0.000000
0.000000 0.731594 0.000000
0.000000 0.731350 0.000000
0.000000 0.730983 0.000000
0.000000 0.730434 0.000000
0.000000 0.729763 0.000000
0.000000 0.728939 0.000000
0.082063 0.727993 0.000000
0.182834 0.726864 0.000000
0.251591 0.725582 0.000000
0.308721 0.724208 0.000000
0.360784 0.722621 0.000000
0.409186 0.720882 0.000000
0.454932 0.718990 0.000000
0.498573 0.717006 0.000000
0.541039 0.714839 0.000000
0.582361 0.712551 0.000000
0.622797 0.710079 0.000000
0.662379 0.707515 0.000000
0.701503 0.704677 0.000000
0.740169 0.701778 0.000000
0.778470 0.698726 0.000000
0.816678 0.695460 0.000000
0.855039 0.692378 0.000000
0.893248 0.688624 0.000000
0.930846 0.683955 0.000000
0.967651 0.678065 0.000000
1.000000 0.670710 0.000000
1.000000 0.661952 0.000000
1.000000 0.651698 0.000000
1.000000 0.639918 0.000000
1.000000 0.626581 0.000000
0.000000 0.767239 0.000000
0.000000 0.766995 0.000000
0.000000 0.766781 0.000000
0.000000 0.766415 0.000000
0.000000 0.765927 0.000000
0.000000 0.765377 0.000000
0.000000 0.764614 0.000000
0.000000 0.763760 0.000000
0.106172 0.762783 0.000000
0.203067 0.761685 0.000000
0.272038 0.760372 0.000000
0.330266 0.758968 0.000000
0.382818 0.757443 0.000000
0.431617 0.755764 0.000000
0.477790 0.754025 0.000000
0.522087 0.752071 0.000000
0.564935 0.749996 0.000000
0.606775 0.747799 0.000000
0.647639 0.745418 0.000000
0.687800 0.743008 0.000000
0.727504 0.740383 0.000000
0.766781 0.737606 0.000000
0.805844 0.734646 0.000000
0.844633 0.731533 0.000000
0.883421 0.728206 0.000000
0.921721 0.723842 0.000000
0.959167 0.718196 0.000000
0.995422 0.711208 0.000000
1.000000 0.702693 0.000000
1.000000 0.692622 0.000000
1.000000 0.681086 0.000000
1.000000 0.667933 0.000000
0.000000 0.802762 0.000000
0.000000 0.802518 0.000000
0.000000 0.802304 0.000000
0.000000 0.801968 0.000000
0.000000 0.801572 0.000000
0.000000 0.801083 0.000000
0.000000 0.800381 0.000000
0.000000 0.799619 0.000000
0.000000 0.798764 0.000000
0.123964 0.797696 0.000000
0.221012 0.796567 0.000000
0.290929 0.795285 0.000000
0.349920 0.794003 0.000000
0.403143 0.792477 0.000000
0.452857 0.790860 0.000000
0.499916 0.789090 0.000000
0.544793 0.787228 0.000000
0.588342 0.785245 0.000000
0.630610 0.783139 0.000000
0.672084 0.780941 0.000000
0.712947 0.778531 0.000000
0.753292 0.776028 0.000000
0.793332 0.773342 0.000000
0.833127 0.770474 0.000000
0.872709 0.767483 0.000000
0.911925 0.763668 0.000000
0.949889 0.758358 0.000000
0.986725 0.751461 0.000000
1.000000 0.743130 0.000000
1.000000 0.733242 0.000000
1.000000 0.721767 0.000000
1.000000 0.708766 0.000000
0.000000 0.837858 0.000000
0.000000 0.837736 0.000000
0.000000 0.837522 0.000000
0.000000 0.837217 0.000000
0.000000 0.836820 0.000000
0.000000 0.836332 0.000000
0.000000 0.835752 0.000000
0.000000 0.835111 0.000000
0.000000 0.834287 0.000000
0.000000 0.833341 0.000000
0.138430 0.832334 0.000000
0.236210 0.831205 0.000000
0.307897 0.829892 0.000000
0.368322 0.828550 0.000000
0.422614 0.827085 0.000000
0.473091 0.825528 0.000000
0.520623 0.823819 0.000000
0.566369 0.822019 0.000000
0.610651 0.820066 0.000000
0.653773 0.818021 0.000000
0.695979 0.815824 0.000000
0.737606 0.813474 0.000000
0.778775 0.811002 0.000000
0.819425 0.808408 0.000000
0.860105 0.805600 0.000000
0.900542 0.802640 0.000000
0.940032 0.798276 0.000000
0.977478 0.791592 0.000000
1.000000 0.783352 0.000000
1.000000 0.773587 0.000000
1.000000 0.762173 0.000000
1.000000 0.749142 0.000000
0.000000 0.872129 0.000000
0.000000 0.871946 0.000000
0.000000 0.871824 0.000000
0.000000 0.871550 0.000000
0.000000 0.871183 0.000000
0.000000 0.870726 0.000000
0.000000 0.870207 0.000000
0.000000 0.869566 0.000000
0.000000 0.868803 0.000000
0.000000 0.867979 0.000000
0.000000 0.867002 0.000000
0.149264 0.865995 0.000000
0.249699 0.864805 0.000000
0.322850 0.863584 0.000000
0.384771 0.862211 0.000000
0.440284 0.860716 0.000000
0.491798 0.859159 0.000000
0.540429 0.857450 0.000000
0.586938 0.855680 0.000000
0.632044 0.853758 0.000000
0.675929 0.851713 0.000000
0.718898 0.849546 0.000000
0.761349 0.847227 0.000000
0.803159 0.844816 0.000000
0.844755 0.842191 0.000000
0.886229 0.839384 0.000000
0.927520 0.836423 0.000000
0.967498 0.831754 0.000000
1.000000 0.823545 0.000000
1.000000 0.813779 0.000000
1.000000 0.802396 0.000000
1.000000 0.789273 0.000000
0.000000 0.905089 0.000000
0.000000 0.904936 0.000000
0.000000 0.904753 0.000000
0.000000 0.904509 0.000000
0.000000 0.904204 0.000000
0.000000 0.903777 0.000000
0.000000 0.903258 0.000000
0.000000 0.902678 0.000000
0.000000 0.902007 0.000000
0.000000 0.901244 0.000000
0.000000 0.900328 0.000000
0.000000 0.899351 0.000000
0.157900 0.898253 0.000000
0.261051 0.897093 0.000000
0.336370 0.895811 0.000000
0.399786 0.894469 0.000000
0.456550 0.892973 0.000000
0.509209 0.891386 0.000000
0.558831 0.889708 0.000000
0.606195 0.887938 0.000000
0.652186 0.885985 0.000000
0.696895 0.884001 0.000000
0.740658 0.881804 0.000000
0.783902 0.879484 0.000000
0.826627 0.876982 0.000000
0.869047 0.874388 0.000000
0.911284 0.871580 0.000000
0.953521 0.868528 0.000000
0.994171 0.863737 0.000000
1.000000 0.853910 0.000000
1.000000 0.842405 0.000000
1.000000 0.829221 0.000000
0.000000 0.936522 0.000000
0.000000 0.936370 0.000000
0.000000 0.936187 0.000000
0.000000 0.935973 0.000000
0.000000 0.935668 0.000000
0.000000 0.935271 0.000000
0.000000 0.934813 0.000000
0.000000 0.934264 0.000000
0.000000 0.933593 0.000000
0.000000 0.932830 0.000000
0.000000 0.932036 0.000000
0.000000 0.931121 0.000000
0.000000 0.930114 0.000000
0.162600 0.928985 0.000000
0.270237 0.927764 0.000000
0.347753 0.926482 0.000000
0.413062 0.925078 0.000000
0.471260 0.923583 0.000000
0.525048 0.921996 0.000000
0.575677 0.920287 0.000000
0.624109 0.918486 0.000000
0.670954 0.916533 0.000000
0.716548 0.914488 0.000000
0.761288 0.912261 0.000000
0.805264 0.909880 0.000000
0.848753 0.907408 0.000000
0.892058 0.904692 0.000000
0.935119 0.901762 0.000000
0.978058 0.898711 0.000000
1.000000 0.893980 0.000000
1.000000 0.882353 0.000000
1.000000 0.868986 0.000000
0.000000 0.966155 0.000000
0.000000 0.966033 0.000000
0.000000 0.965881 0.000000
0.000000 0.965667 0.000000
0.000000 0.965362 0.000000
0.000000 0.965026 0.000000
0.000000 0.964538 0.000000
0.000000 0.964019 0.000000
0.000000 0.963409 0.000000
0.000000 0.962707 0.000000
0.000000 0.961883 0.000000
0.000000 0.961028 0.000000
0.000000 0.960052 0.000000
0.000000 0.958984 0.000000
0.164584 0.957855 0.000000
0.277501 0.956573 0.000000
0.357610 0.955230 0.000000
0.424567 0.953826 0.000000
0.484443 0.952270 0.000000
0.539483 0.950622 0.000000
